X:1
T:Why Linger?
T:Why Linger?
T:John Robson Sweney
T:Mrs. W. L. Brown, 1889
T:Public Domain Courtesy of the Cyber Hymnal™
T:Public Domain Courtesy of the Cyber Hymnal™
C:John Robson Sweney
Z:Public Domain
Z:Courtesy of the Cyber Hymnal™
%%score ( 1 2 ) ( 3 4 )
L:1/8
Q:1/4=160
M:6/4
K:Eb
V:1 treble 
V:2 treble 
V:3 bass 
V:4 bass 
V:1
 [EG]2 | [EG]2 [E^F]2 [EG]2 [=FA]2 [EG]2 [FA]2 | [GB]6 [EG]4 [GB]2 | %3
w: 1.~Oh,|why do you ling- er yet|long- er? O|
w: 2.~The|plea- sures of earth are de-|lud- ing, They|
w: 3.~The|dark- ness of death will o’er-|take you, And|
w: 4.~Then|look to the Sav- ior for|mer- cy, You’ve|
 [Ge]2 [Bd]2 [Ac]2 [Ac]2 [GB]2 [EG]2 | [DF]6- [DF]4 [DF]2 | [DF]2 [EG]2 [FA]2 [FA]2 [=EG]2 [FA]2 | %6
w: sin- ner, to Je- sus draw|nigh; * The|Sav- ior is lov- ing- ly|
w: soon, ah, they soon pass a-|way; * Thy|grasp they are oft- en e-|
w: life with its plea- sures be|gone; * The|hopes that have cheered will for-|
w: on- ly to look and be-|lieve; * His|arms are ex- tend- ed to|
 [Ac]6 [GB]4 [Ge]2 | [Fd]2 [F^c]2 [Fd]2 [Fe]2 [EG]2 [E=A]2 | [DB]6- [DB]4 ||"^Refrain" B2 | %10
w: call- ing, “Dear|sin- ner, oh, why will you|die?” *||
w: lud- ing, And|then, yes, ah, then they de-|cay. *|Why|
w: sake you, And|leave you in dark- ness for-|lorn. *||
w: save you; He|lov- ing- ly waits to re-|ceive. *||
 [FA]8 [Ad]2 [Ac]2 | [GB]6 [EG]4 [EG]2 | [Ec]6 [Gd]4 G2 | [Ge]6- [Ge]4 [Ge]2 | [Ae]8 [Ad]2 [Ac]2 | %15
w: |||||
w: ling- er, why|ling- er, While|mer- cy is|nigh? * Why|ling- er, why|
w: |||||
w: |||||
 [GB]6 [EG]4 E2 | [EF]6 [DA]4 [DA]2 | [EG]6- [EG]4 |] %18
w: |||
w: ling- er? Oh,|why will ye|die? *|
w: |||
w: |||
V:2
 x2 | x12 | x12 | x12 | x12 | x12 | x12 | x12 | x10 || B2 | x12 | x12 | x10 G2 | x12 | x12 | %15
 x10 E2 | x12 | x10 |] %18
V:3
 [E,B,]2 | [E,B,]2 [E,=A,]2 [E,B,]2 [E,B,]2 [E,B,]2 [E,B,]2 | [E,E]6 [E,B,]4 [E,B,]2 | %3
w: |||
 [E,B,]2 [E,B,]2 [E,E]2 [E,E]2 [E,E]2 [E,B,]2 | [B,,B,]6- [B,,B,]4 [B,,B,]2 | %5
w: ||
 [B,,B,]2 [B,,B,]2 [B,,B,]2 [B,,B,]2 [B,,B,]2 [B,,D]2 | [E,E]6 [E,E]4 [E,B,]2 | %7
w: ||
 [F,B,]2 [F,=A,]2 [F,B,]2 [F,C]2 [F,C]2 F,2 | [B,,F,]6- [B,,F,]4 || B,2 | %10
w: * * * * * Why||lin-|
 [B,D]2 [B,D]2 [B,D]2 [B,D]2 B,2 [B,D]2 | [E,E]6 [E,B,]4 [E,G,]2 | %12
w: ger, dear sin- ner, why ling-|er While mer-|
 [C,G,]2 [C,G,]2 [C,G,]2 [G,=B,]2 [G,B,]2 [G,B,]2 | [C,C]6- [C,C]4 [C,C]2 | %14
w: cy, while mer- cy is nigh?|Why * lin-|
 [A,C]2 [A,C]2 [A,C]2 [A,C]2 [A,D]2 [A,E]2 | [E,E]6 [E,B,]4 [E,G,]2 | [A,,C]6 [B,,B,]4 [B,,B,]2 | %17
w: ger, dear sin- ner, why ling-|er? * *||
 [E,B,]6- [E,B,]4 |] %18
w: |
V:4
 x2 | x12 | x12 | x12 | x12 | x12 | x12 | x10 F,2 | x10 || B,2 | x8 B,2 x2 | x12 | x12 | x12 | %14
 x12 | x12 | x12 | x10 |] %18

